public/editor-src/editor/icons/fa/vials.svg

<svg xmlns="http://www.w3.org/2000/svg" viewBox="0 0 512 512"><!--! Font Awesome Free 6.4.0 by @fontawesome - https://fontawesome.com License - https://fontawesome.com/license/free (Icons: CC BY 4.0, Fonts: SIL OFL 1.1, Code: MIT License) Copyright 2023 Fonticons, Inc.--><path d="M0 64c0-17.7 14.3-32 32-32h160c17.7 0 32 14.3 32 32s-14.3 32-32 32v304c0 44.2-35.8 80-80 80s-80-35.8-80-80V96C14.3 96 0 81.7 0 64zm136 32H88v160h48V96zm152-32c0-17.7 14.3-32 32-32h160c17.7 0 32 14.3 32 32s-14.3 32-32 32v304c0 44.2-35.8 80-80 80s-80-35.8-80-80V96c-17.7 0-32-14.3-32-32zm136 32h-48v160h48V96z"/></svg>

<svg xmlns="http://www.w3.org/2000/svg" viewBox="0 0 512 512"><!--! Font Awesome Free 6.4.0 by @fontawesome - https://fontawesome.com License - https://fontawesome.com/license/free (Icons: CC BY 4.0, Fonts: SIL OFL 1.1, Code: MIT License) Copyright 2023 Fonticons, Inc. --><path d="M0 64C0 46.3 14.3 32 32 32H88h48 56c17.7 0 32 14.3 32 32s-14.3 32-32 32V400c0 44.2-35.8 80-80 80s-80-35.8-80-80V96C14.3 96 0 81.7 0 64zM136 96H88V256h48V96zM288 64c0-17.7 14.3-32 32-32h56 48 56c17.7 0 32 14.3 32 32s-14.3 32-32 32V400c0 44.2-35.8 80-80 80s-80-35.8-80-80V96c-17.7 0-32-14.3-32-32zM424 96H376V256h48V96z"/></svg>
